assets/img/icons/duotone-icons/Files/Folder-star.svg

<?xml version="1.0" encoding="UTF-8"?>
<svg width="24px" height="24px" viewBox="0 0 24 24" version="1.1" xmlns="http://www.w3.org/2000/svg" xmlns:xlink="http://www.w3.org/1999/xlink">
    <!-- Generator: Sketch 52.2 (67145) - http://www.bohemiancoding.com/sketch -->
    <title>Stockholm-icons / Files / Folder-star</title>
    <desc>Created with Sketch.</desc>
    <g id="Stockholm-icons-/-Files-/-Folder-star" stroke="none" stroke-width="1" fill="none" fill-rule="evenodd">
        <rect id="bound" x="0" y="0" width="24" height="24"></rect>
        <path d="M3.5,21 L20.5,21 C21.3284271,21 22,20.3284271 22,19.5 L22,8.5 C22,7.67157288 21.3284271,7 20.5,7 L10,7 L7.43933983,4.43933983 C7.15803526,4.15803526 6.77650439,4 6.37867966,4 L3.5,4 C2.67157288,4 2,4.67157288 2,5.5 L2,19.5 C2,20.3284271 2.67157288,21 3.5,21 Z" id="Combined-Shape" fill="#335EEA" opacity="0.3"></path>
        <path d="M11.9999651,17.2276651 L9.80187391,18.4352848 C9.53879239,18.5798204 9.21340017,18.4741205 9.07509004,18.1991974 C9.02001422,18.0897216 9.00100892,17.9643258 9.02101638,17.8424227 L9.44081443,15.2846431 L7.66252134,13.4732136 C7.44968392,13.2564102 7.44532889,12.9003514 7.65279409,12.677934 C7.73540782,12.5893662 7.84365664,12.5317281 7.96078237,12.5139426 L10.418323,12.1407676 L11.5173686,9.81362288 C11.6489093,9.53509542 11.97161,9.42073887 12.2381407,9.5582004 C12.3442746,9.6129383 12.4301813,9.70271178 12.4825615,9.81362288 L13.5816071,12.1407676 L16.0391477,12.5139426 C16.3332818,12.5586066 16.5370768,12.8439892 16.4943366,13.1513625 C16.4773173,13.2737601 16.4221618,13.3868813 16.3374088,13.4732136 L14.5591157,15.2846431 L14.9789137,17.8424227 C15.0291578,18.148554 14.8324094,18.4392867 14.5394638,18.4917923 C14.4228114,18.5127004 14.3028166,18.4928396 14.1980562,18.4352848 L11.9999651,17.2276651 Z" id="Star" fill="#335EEA" opacity="0.3"></path>
    </g>
</svg>

<svg width="24" height="24" viewBox="0 0 24 24" xmlns="http://www.w3.org/2000/svg"><g fill="none" fill-rule="evenodd"><path d="M0 0h24v24H0z"/><path d="M3.5 21h17a1.5 1.5 0 001.5-1.5v-11A1.5 1.5 0 0020.5 7H10L7.44 4.44A1.5 1.5 0 006.378 4H3.5A1.5 1.5 0 002 5.5v14A1.5 1.5 0 003.5 21z" fill="#335EEA" opacity=".3"/><path d="M12 17.228l-2.198 1.207a.527.527 0 01-.727-.236.585.585 0 01-.054-.357l.42-2.557-1.778-1.812a.58.58 0 01-.01-.795.53.53 0 01.308-.164l2.457-.373 1.1-2.327a.528.528 0 01.965 0l1.099 2.327 2.457.373a.56.56 0 01.455.637.572.572 0 01-.157.322l-1.778 1.812.42 2.557a.56.56 0 01-.44.65.518.518 0 01-.34-.057L12 17.228z" fill="#335EEA" opacity=".3"/></g></svg>
